img/contacts__icon_01.svg

<svg width="32" height="36" viewBox="0 0 32 36" fill="none" xmlns="http://www.w3.org/2000/svg">
<path d="M16.0233 27.4814C14.7959 28.2878 13.0092 27.865 12.2744 26.5968L6.96117 17.4303C6.21415 16.1415 6.59069 14.4467 7.80036 13.6522L7.43593 13.0241L7.80036 13.6522L12.4478 10.5977L8.35583 3.54004L3.71115 6.59212C-0.84513 9.58564 -0.696643 17.4245 4.07279 25.6543C6.25557 29.4206 9.00364 32.416 11.8103 34.0892C13.463 35.0741 15.0918 35.5688 16.6091 35.5683C17.8829 35.5683 19.0783 35.2199 20.1439 34.5197L24.6143 31.5842L20.5223 24.5247L16.0233 27.4814ZM19.4151 33.2632C16.9974 34.8517 14.3135 33.8888 12.4883 32.8005C9.88392 31.2484 7.31446 28.4349 5.25365 24.879C0.91314 17.3886 0.578841 10.3856 4.44016 7.84847L4.07574 7.22038L4.44016 7.84847L7.90366 5.57226L10.5386 10.1168L7.07135 12.3955C5.21059 13.6178 4.63154 16.2243 5.78015 18.2056L11.0929 27.3716C12.2288 29.3324 14.8729 29.9699 16.751 28.7378L20.0698 26.5569L22.7047 31.102L19.4151 33.2632Z" fill="black"/>
<path d="M20.806 14.1819C21.835 15.8635 22.0825 17.9236 21.4846 19.8347L22.801 20.3014C23.5332 17.9611 23.2298 15.4367 21.9692 13.3766C20.6702 11.2472 18.4685 9.88641 16.0797 9.73584L15.9978 11.2102C17.9774 11.3346 19.7301 12.4178 20.806 14.1819Z" fill="black"/>
<path d="M17.0184 4.85059L16.8597 6.31746C20.0826 6.71184 22.9429 8.59419 24.7086 11.4809C26.4181 14.2794 26.9026 17.7253 26.0371 20.9363L27.3707 21.3435C28.3469 17.7213 27.8008 13.8329 25.8714 10.6756C23.8795 7.41835 20.6531 5.29516 17.0184 4.85059Z" fill="black"/>
<path d="M29.3286 8.28047C26.7497 4.05831 22.5827 1.23854 17.8965 0.544922L17.7056 2.00796C21.993 2.6425 25.8059 5.22246 28.1658 9.08579C30.4779 12.8669 31.1715 17.5366 30.0691 21.8987L31.4088 22.2821C32.6134 17.516 31.8551 12.4122 29.3286 8.28047Z" fill="black"/>
</svg>

<svg width="32" height="36" fill="none" xmlns="http://www.w3.org/2000/svg"><path d="M16.023 27.481c-1.227.807-3.014.384-3.749-.884L6.961 17.43c-.747-1.288-.37-2.983.84-3.778l-.365-.628.364.628 4.648-3.054L8.356 3.54 3.71 6.592c-4.556 2.994-4.408 10.832.362 19.062 2.183 3.767 4.93 6.762 7.737 8.435 1.653.985 3.282 1.48 4.8 1.48a6.34 6.34 0 003.534-1.05l4.47-2.935-4.092-7.06-4.499 2.957zm3.392 5.782c-2.418 1.589-5.101.626-6.927-.462-2.604-1.553-5.174-4.366-7.234-7.922-4.34-7.49-4.675-14.493-.814-17.03l-.364-.629.364.628 3.464-2.276 2.635 4.545-3.468 2.278c-1.86 1.223-2.44 3.83-1.29 5.81l5.312 9.167c1.136 1.96 3.78 2.598 5.658 1.366l3.319-2.181 2.635 4.545-3.29 2.161zm1.391-19.081a6.886 6.886 0 01.679 5.653l1.316.466a8.436 8.436 0 00-.832-6.924c-1.299-2.13-3.5-3.49-5.89-3.641l-.081 1.474c1.98.125 3.732 1.208 4.808 2.972z" fill="#000"/><path d="M17.018 4.85l-.158 1.467c3.223.395 6.083 2.277 7.849 5.164 1.71 2.798 2.194 6.244 1.328 9.455l1.334.407c.976-3.622.43-7.51-1.5-10.667-1.991-3.258-5.218-5.38-8.853-5.825z" fill="#000"/><path d="M29.329 8.28c-2.58-4.222-6.746-7.04-11.433-7.735l-.19 1.463c4.287.635 8.1 3.214 10.46 7.078 2.312 3.78 3.006 8.45 1.903 12.813l1.34.383c1.204-4.766.446-9.87-2.08-14.002z" fill="#000"/></svg>
